libs/application/schema/src/schemas/ExampleForm3Icon.svg

<svg width="18" height="16" fill="none" xmlns="http://www.w3.org/2000/svg"><path d="M15.92 1.01A1.504 1.504 0 0014.5 0h-11c-.655 0-1.215.42-1.42 1.01L0 7v8c0 .55.45 1 1 1h1a1 1 0 001-1v-1h12v1c0 .55.45 1 1 1h1a1 1 0 001-1V7l-2.08-5.99zM3.5 11C2.67 11 2 10.33 2 9.5S2.67 8 3.5 8 5 8.67 5 9.5 4.33 11 3.5 11zm11 0c-.83 0-1.5-.67-1.5-1.5S13.67 8 14.5 8s1.5.67 1.5 1.5-.67 1.5-1.5 1.5zM2 6l1.5-4.5h11L16 6H2z" fill="#0061FF"/></svg>

<svg width="18" height="16" viewBox="0 0 18 16" fill="none" xmlns="http://www.w3.org/2000/svg">
<path d="M15.92 1.01C15.715 0.42 15.155 0 14.5 0H3.5C2.845 0 2.285 0.42 2.08 1.01L0 7V15C0 15.55 0.45 16 1 16H2C2.555 16 3 15.55 3 15V14H15V15C15 15.55 15.45 16 16 16H17C17.555 16 18 15.55 18 15V7L15.92 1.01ZM3.5 11C2.67 11 2 10.33 2 9.5C2 8.67 2.67 8 3.5 8C4.33 8 5 8.67 5 9.5C5 10.33 4.33 11 3.5 11ZM14.5 11C13.67 11 13 10.33 13 9.5C13 8.67 13.67 8 14.5 8C15.33 8 16 8.67 16 9.5C16 10.33 15.33 11 14.5 11ZM2 6L3.5 1.5H14.5L16 6H2Z" fill="#0061FF"/>
</svg>
